X:1
T:Holy, Holy, Holy! Lord God Almighty
T:Text: Reginald Heber, 1827, alt. Tune: John B. Dykes, 1861
T:11 12 12 10 NICAEA www.hymnary.org/text/holy_holy_holy_lord_god_almighty_early
T:Holy, Holy, Holy! Lord God Almighty
T:This hymn is in the public domain. You may freely use this score for personal and congregational worship. If you reproduce the score, please credit Hymnary.org as the source. 
T:This hymn is in the public domain. You may freely use this score for personal and congregational worship. If you reproduce the score, please credit Hymnary.org as the source. 
Z:This hymn is in the public domain. You may freely use this score for personal and congregational worship. If you reproduce the score, please credit Hymnary.org as the source.
%%score ( 1 2 ) ( 3 4 )
L:1/8
M:4/4
K:D
V:1 treble nm="SOPRANO ALTO" snm="S. A."
V:2 treble 
V:3 bass nm="TENOR BASS" snm="T. B."
V:4 bass 
V:1
"^D""^1""^2""^3""^4" D2 D2"^Bm" F2 F2 |"^A" A4"^D" A4 |"^G" (B3 B) B2 B2 |"^D" A4 F4 | %4
w: Ho- ly, ho- ly,|ho- ly!|Lord _ God Al-|might- y!|
w: Ho- ly, ho- ly,|ho- ly!|All the saints a-|dore thee,|
w: Ho- ly, ho- ly,|ho- ly!|Though the dark- ness|hide thee,|
w: Ho- ly, ho- ly,|ho- ly!|Lord _ God Al-|might- y!|
"^A" A3 A"^D" A2 A2 |"^Bm" (d2 d2)"^A" c2 A2 | E2 A2"^E7" B3 A |"^A" A8 |"^D" D2 D2"^Bm" F2 F2 | %9
w: Ear- ly in the|morn- * ing our|song shall rise to|thee;|ho- ly, ho- ly,|
w: cast- ing down their|gold- en crowns a-|round the glass- y|sea;|cher- u- bim and|
w: though the eye made|blind by sin thy|glo- ry may not|see,|on- ly thou art|
w: All thy works shall|praise thy name, in|earth and sky and|sea;|ho- ly, ho- ly,|
"^A" (A2 A2)"^D" A4 |"^G" B3 B B2 B2 |"^D" A4 A4 |1"^Bm" d4"^D" A2 A2 |"^G" B4"^D" F4 | %14
w: ho- * ly!|mer- ci- ful and|might- y,|God in three|per- sons,|
w: ser- a- phim|fall- ing down be-|fore thee,|who wert and|art and|
w: ho- * ly;|there is none be-|side thee,|per- fect in|power, in|
w: ho- * ly;|mer- ci- ful and|might- y,|God in three|per- sons,|
"^G" G2 E2"^A7" E3 D |"^D" D8 |] %16
w: bless- ed Trin- i-|ty!|
w: ev- er more shalt|be.|
w: love, and pu- ri-|ty.|
w: bless- ed Trin- i-|ty!|
V:2
 A,2 A,2 D2 D2 | (C2 E2) (D2 C2) | (B,2 C2) D2 E2 | F4 D4 | E2 E2 F2 E2 | (D2 E2) E2 F2 | %6
 E2 C2 D3 C | C8 | A,2 A,2 D2 D2 | (C2 E2) (D2 C2) | B,2 C2 D2 E2 | F4 D4 |1 D4 D2 D2 | %13
 D4 (D2 =C2) | B,2 B,2 ^C3 D | D8 |] %16
V:3
 F,2 F,2 D,2 D,2 | (E,2 G,2) (F,2 A,2) | (G,2 A,2) B,2 C2 | (D2 A,2) A,4 | A,2 A,2 A,2 A,2 | %5
 (F,2 ^G,2) A,2 A,2 | C2 A,2 ^G,3 A, | (A,4 =G,4) | F,2 F,2 D,2 D,2 | (E,2 G,2) (F,2 A,2) | %10
 G,2 A,2 B,2 C2 | (D2 A,2) F,4 |1 (F,2 G,2) A,2 =C2 | B,4 A,4 | G,2 G,2 G,3 F, | F,8 |] %16
V:4
 D,2 D,2 B,,2 B,,2 | A,,4 D,4 | (G,,3 G,,) G,2 G,2 | D,4 D,4 | C,2 C,2 D,2 C,2 | %5
 (B,,2 B,,2) C,2 D,2 | E,2 E,2 E,3 A,, | A,,8 | D,2 D,2 B,,2 B,,2 | (A,,2 A,,2) D,4 | %10
 G,,3 G,, G,2 G,2 | D,4 D,4 |1 B,,4 F,,2 F,,2 | G,,4 D,4 | G,,2 G,,2 A,,3 D, | D,8 |] %16

